X: 67
T:Bishop of Bangor's Jig
M:6/8
L:1/8
Q:130
C:Trad
S:Blodau'r Grug Collection Vol. 2
R:jig
A:Wales
Z:brian_martin12345@yahoo.com
K:Em
B|efg fge|^def B2e|dcB cBA|B3-B2B|efg fge|!^def B2e|dcB cBA|B3-B2||]
B/c/|dBG cAF|BGE AFD|GAB A2G|!G3-G2B|ge^c af^d|bge af^d|efg Be^d|e3-
Še2:||

